X:19
T:The Hungry Rocks
C:Eddie Kelly
S:Bernie Waugh
R:Jig
M:6/8
L:1/8
K:Em
"Em"efe d2A|~BAG EDB,|DEG Eed|"G"BAG ABd|
"Em"edB dBA|~BAG EDB,|"Am"DEG Eed|"Bm"BAG "Em"E3|
"Em"efe d2A|~BAG EDB,|"Am"CA,A, A,B,D|"Bm"~B,3B,Bd|
"Em"edB dBA|~BAG EDB,|"Am"DEG Eed|"Bm"BAG "Em"E3||
|:\
"Em"e2f gfe|bea ged|Bee "C"bea|"D"gdf "Em"e2f|
"G"fg~g edB|"D"AFD EFA|"Em"deg "Am"fed|"Bm"BAF "Em"E3:|

